images/content/johnson-solids/augmented-tridiminished-icosahedron.svg

<?xml version="1.0" encoding="UTF-8"?>
<svg xmlns="http://www.w3.org/2000/svg" xmlns:xlink="http://www.w3.org/1999/xlink" width="199.19pt" height="140.62pt" viewBox="0 0 199.19 140.62" version="1.2">
<g id="surface1">
<path style="fill-rule:nonzero;fill:rgb(77.734375%,43.60199%,40.893555%);fill-opacity:1;stroke-width:5;stroke-linecap:round;stroke-linejoin:round;stroke:rgb(0%,0%,0%);stroke-opacity:1;stroke-miterlimit:10;" d="M 1161.932389 541.034141 L 602.282996 564.763055 L 722.770972 1064.011574 " transform="matrix(0.099595,0,0,-0.099595,0,140.146014)"/>
<path style=" stroke:none;fill-rule:nonzero;fill:rgb(77.734375%,43.60199%,40.893555%);fill-opacity:1;" d="M 164.648438 44.613281 L 115.722656 86.261719 L 71.984375 34.175781 "/>
<path style="fill:none;stroke-width:5;stroke-linecap:round;stroke-linejoin:round;stroke:rgb(0%,0%,0%);stroke-opacity:1;stroke-miterlimit:10;" d="M 1653.179753 959.212137 L 1161.932389 541.034141 " transform="matrix(0.099595,0,0,-0.099595,0,140.146014)"/>
<path style=" stroke:none;fill-rule:nonzero;fill:rgb(58.984375%,50.193787%,72.068787%);fill-opacity:1;" d="M 170.476562 113.304688 L 115.722656 86.261719 L 164.648438 44.613281 "/>
<path style="fill:none;stroke-width:5;stroke-linecap:round;stroke-linejoin:round;stroke:rgb(0%,0%,0%);stroke-opacity:1;stroke-miterlimit:10;" d="M 1711.698002 269.504759 L 1161.932389 541.034141 L 1653.179753 959.212137 Z M 1711.698002 269.504759 " transform="matrix(0.099595,0,0,-0.099595,0,140.146014)"/>
<path style="fill-rule:nonzero;fill:rgb(66.209412%,90.429688%,97.851562%);fill-opacity:1;stroke-width:5;stroke-linecap:round;stroke-linejoin:round;stroke:rgb(0%,0%,0%);stroke-opacity:1;stroke-miterlimit:10;" d="M 602.282996 564.763055 L 1161.932389 541.034141 L 1711.698002 269.504759 " transform="matrix(0.099595,0,0,-0.099595,0,140.146014)"/>
<path style="fill-rule:nonzero;fill:rgb(77.734375%,43.60199%,40.893555%);fill-opacity:1;stroke-width:5;stroke-linecap:round;stroke-linejoin:round;stroke:rgb(0%,0%,0%);stroke-opacity:1;stroke-miterlimit:10;" d="M 722.770972 1064.011574 L 1447.777562 1324.990414 L 1653.179753 959.212137 " transform="matrix(0.099595,0,0,-0.099595,0,140.146014)"/>
<path style=" stroke:none;fill-rule:nonzero;fill:rgb(0%,0%,0%);fill-opacity:1;" d="M 164.648438 44.613281 L 144.191406 8.183594 L 194.066406 67.503906 "/>
<path style="fill:none;stroke-width:5;stroke-linecap:round;stroke-linejoin:round;stroke:rgb(0%,0%,0%);stroke-opacity:1;stroke-miterlimit:10;" d="M 1653.179753 959.212137 L 1447.777562 1324.990414 L 1948.555713 729.375046 Z M 1653.179753 959.212137 " transform="matrix(0.099595,0,0,-0.099595,0,140.146014)"/>
<path style=" stroke:none;fill-rule:nonzero;fill:rgb(20.701599%,16.50238%,58.789062%);fill-opacity:1;" d="M 170.476562 113.304688 L 164.648438 44.613281 L 194.066406 67.503906 "/>
<path style="fill:none;stroke-width:5;stroke-linecap:round;stroke-linejoin:round;stroke:rgb(0%,0%,0%);stroke-opacity:1;stroke-miterlimit:10;" d="M 1711.698002 269.504759 L 1653.179753 959.212137 L 1948.555713 729.375046 Z M 1711.698002 269.504759 " transform="matrix(0.099595,0,0,-0.099595,0,140.146014)"/>
<path style=" stroke:none;fill-rule:nonzero;fill:rgb(66.209412%,90.429688%,97.851562%);fill-opacity:1;" d="M 76.363281 113.09375 L 59.984375 83.898438 L 170.476562 113.304688 "/>
<path style="fill:none;stroke-width:5;stroke-linecap:round;stroke-linejoin:round;stroke:rgb(0%,0%,0%);stroke-opacity:1;stroke-miterlimit:10;" d="M 766.738102 271.622712 L 602.282996 564.763055 " transform="matrix(0.099595,0,0,-0.099595,0,140.146014)"/>
<path style="fill-rule:nonzero;fill:rgb(66.209412%,90.429688%,97.851562%);fill-opacity:1;stroke-width:5;stroke-linecap:round;stroke-linejoin:round;stroke:rgb(0%,0%,0%);stroke-opacity:1;stroke-miterlimit:10;" d="M 1711.698002 269.504759 L 1547.517446 66.298963 L 766.738102 271.622712 " transform="matrix(0.099595,0,0,-0.099595,0,140.146014)"/>
<path style=" stroke:none;fill-rule:nonzero;fill:rgb(72.65625%,30.589294%,0%);fill-opacity:1;" d="M 194.066406 67.503906 L 154.125 133.542969 L 170.476562 113.304688 "/>
<path style="fill:none;stroke-width:5;stroke-linecap:round;stroke-linejoin:round;stroke:rgb(0%,0%,0%);stroke-opacity:1;stroke-miterlimit:10;" d="M 1948.555713 729.375046 L 1547.517446 66.298963 L 1711.698002 269.504759 Z M 1948.555713 729.375046 " transform="matrix(0.099595,0,0,-0.099595,0,140.146014)"/>
<path style=" stroke:none;fill-rule:nonzero;fill:rgb(70.117188%,94.921875%,95.506287%);fill-opacity:1;" d="M 5.296875 78.109375 L 59.984375 83.898438 L 76.363281 113.09375 "/>
<path style="fill:none;stroke-width:5;stroke-linecap:round;stroke-linejoin:round;stroke:rgb(0%,0%,0%);stroke-opacity:1;stroke-miterlimit:10;" d="M 53.184146 622.889091 L 602.282996 564.763055 L 766.738102 271.622712 Z M 53.184146 622.889091 " transform="matrix(0.099595,0,0,-0.099595,0,140.146014)"/>
<path style=" stroke:none;fill-rule:nonzero;fill:rgb(81.639099%,46.09375%,38.500977%);fill-opacity:1;" d="M 5.296875 78.109375 L 71.984375 34.175781 L 59.984375 83.898438 "/>
<path style="fill:none;stroke-width:5;stroke-linecap:round;stroke-linejoin:round;stroke:rgb(0%,0%,0%);stroke-opacity:1;stroke-miterlimit:10;" d="M 53.184146 622.889091 L 722.770972 1064.011574 L 602.282996 564.763055 Z M 53.184146 622.889091 " transform="matrix(0.099595,0,0,-0.099595,0,140.146014)"/>
<path style="fill-rule:nonzero;fill:rgb(73.046875%,62.889099%,74.414062%);fill-opacity:1;stroke-width:5;stroke-linecap:round;stroke-linejoin:round;stroke:rgb(0%,0%,0%);stroke-opacity:1;stroke-miterlimit:10;" d="M 1948.555713 729.375046 L 1447.777562 1324.990414 L 722.770972 1064.011574 " transform="matrix(0.099595,0,0,-0.099595,0,140.146014)"/>
<path style="fill-rule:nonzero;fill:rgb(73.046875%,62.889099%,74.414062%);fill-opacity:1;stroke-width:5;stroke-linecap:round;stroke-linejoin:round;stroke:rgb(0%,0%,0%);stroke-opacity:1;stroke-miterlimit:10;" d="M 766.738102 271.622712 L 1547.517446 66.298963 L 1948.555713 729.375046 " transform="matrix(0.099595,0,0,-0.099595,0,140.146014)"/>
<path style=" stroke:none;fill-rule:nonzero;fill:rgb(73.046875%,62.889099%,74.414062%);fill-opacity:1;" d="M 71.984375 34.175781 L 76.363281 113.09375 L 194.066406 67.503906 "/>
<path style="fill:none;stroke-width:5;stroke-linecap:round;stroke-linejoin:round;stroke:rgb(0%,0%,0%);stroke-opacity:1;stroke-miterlimit:10;" d="M 722.770972 1064.011574 L 766.738102 271.622712 " transform="matrix(0.099595,0,0,-0.099595,0,140.146014)"/>
<path style=" stroke:none;fill-rule:nonzero;fill:rgb(69.726562%,59.959412%,74.21875%);fill-opacity:1;" d="M 5.296875 78.109375 L 76.363281 113.09375 L 71.984375 34.175781 "/>
<path style="fill:none;stroke-width:5;stroke-linecap:round;stroke-linejoin:round;stroke:rgb(0%,0%,0%);stroke-opacity:1;stroke-miterlimit:10;" d="M 53.184146 622.889091 L 766.738102 271.622712 L 722.770972 1064.011574 Z M 53.184146 622.889091 " transform="matrix(0.099595,0,0,-0.099595,0,140.146014)"/>
</g>
</svg>

<svg xmlns="http://www.w3.org/2000/svg" width="265.587" height="187.493" viewBox="0 0 199.19 140.62" version="1.2"><path style="fill-rule:nonzero;fill:#c66f68;fill-opacity:1;stroke-width:5;stroke-linecap:round;stroke-linejoin:round;stroke:#000;stroke-opacity:1;stroke-miterlimit:10" d="m1161.932 541.034-559.649 23.73 120.488 499.248" transform="matrix(.0996 0 0 -.0996 0 140.146)"/><path style="stroke:none;fill-rule:nonzero;fill:#c66f68;fill-opacity:1" d="m164.648 44.613-48.925 41.649-43.739-52.086"/><path style="fill:none;stroke-width:5;stroke-linecap:round;stroke-linejoin:round;stroke:#000;stroke-opacity:1;stroke-miterlimit:10" d="m1653.18 959.212-491.248-418.178" transform="matrix(.0996 0 0 -.0996 0 140.146)"/><path style="stroke:none;fill-rule:nonzero;fill:#9680b8;fill-opacity:1" d="m170.477 113.305-54.754-27.043 48.925-41.649"/><path style="fill:none;stroke-width:5;stroke-linecap:round;stroke-linejoin:round;stroke:#000;stroke-opacity:1;stroke-miterlimit:10" d="m1711.698 269.505-549.766 271.53 491.248 418.177Zm0 0" transform="matrix(.0996 0 0 -.0996 0 140.146)"/><path style="fill-rule:nonzero;fill:#a9e7fa;fill-opacity:1;stroke-width:5;stroke-linecap:round;stroke-linejoin:round;stroke:#000;stroke-opacity:1;stroke-miterlimit:10" d="m602.283 564.763 559.65-23.729 549.765-271.53" transform="matrix(.0996 0 0 -.0996 0 140.146)"/><path style="fill-rule:nonzero;fill:#c66f68;fill-opacity:1;stroke-width:5;stroke-linecap:round;stroke-linejoin:round;stroke:#000;stroke-opacity:1;stroke-miterlimit:10" d="m722.771 1064.012 725.007 260.978 205.402-365.778" transform="matrix(.0996 0 0 -.0996 0 140.146)"/><path style="stroke:none;fill-rule:nonzero;fill:#000;fill-opacity:1" d="m164.648 44.613-20.457-36.43 49.875 59.32"/><path style="fill:none;stroke-width:5;stroke-linecap:round;stroke-linejoin:round;stroke:#000;stroke-opacity:1;stroke-miterlimit:10" d="m1653.18 959.212-205.402 365.778 500.778-595.615Zm0 0" transform="matrix(.0996 0 0 -.0996 0 140.146)"/><path style="stroke:none;fill-rule:nonzero;fill:#352a96;fill-opacity:1" d="m170.477 113.305-5.829-68.692 29.418 22.89"/><path style="fill:none;stroke-width:5;stroke-linecap:round;stroke-linejoin:round;stroke:#000;stroke-opacity:1;stroke-miterlimit:10" d="m1711.698 269.505-58.518 689.707 295.376-229.837Zm0 0" transform="matrix(.0996 0 0 -.0996 0 140.146)"/><path style="stroke:none;fill-rule:nonzero;fill:#a9e7fa;fill-opacity:1" d="M76.363 113.094 59.984 83.898l110.493 29.407"/><path style="fill:none;stroke-width:5;stroke-linecap:round;stroke-linejoin:round;stroke:#000;stroke-opacity:1;stroke-miterlimit:10" d="m766.738 271.623-164.455 293.14" transform="matrix(.0996 0 0 -.0996 0 140.146)"/><path style="fill-rule:nonzero;fill:#a9e7fa;fill-opacity:1;stroke-width:5;stroke-linecap:round;stroke-linejoin:round;stroke:#000;stroke-opacity:1;stroke-miterlimit:10" d="m1711.698 269.505-164.18-203.206-780.78 205.324" transform="matrix(.0996 0 0 -.0996 0 140.146)"/><path style="stroke:none;fill-rule:nonzero;fill:#b94e00;fill-opacity:1" d="m194.066 67.504-39.941 66.039 16.352-20.238"/><path style="fill:none;stroke-width:5;stroke-linecap:round;stroke-linejoin:round;stroke:#000;stroke-opacity:1;stroke-miterlimit:10" d="M1948.556 729.375 1547.517 66.299l164.181 203.206Zm0 0" transform="matrix(.0996 0 0 -.0996 0 140.146)"/><path style="stroke:none;fill-rule:nonzero;fill:#b3f2f4;fill-opacity:1" d="m5.297 78.11 54.687 5.788 16.38 29.196"/><path style="fill:none;stroke-width:5;stroke-linecap:round;stroke-linejoin:round;stroke:#000;stroke-opacity:1;stroke-miterlimit:10" d="m53.184 622.89 549.099-58.127 164.455-293.14Zm0 0" transform="matrix(.0996 0 0 -.0996 0 140.146)"/><path style="stroke:none;fill-rule:nonzero;fill:#d07662;fill-opacity:1" d="m5.297 78.11 66.687-43.934-12 49.722"/><path style="fill:none;stroke-width:5;stroke-linecap:round;stroke-linejoin:round;stroke:#000;stroke-opacity:1;stroke-miterlimit:10" d="m53.184 622.89 669.587 441.122-120.488-499.249Zm0 0" transform="matrix(.0996 0 0 -.0996 0 140.146)"/><path style="fill-rule:nonzero;fill:#baa0be;fill-opacity:1;stroke-width:5;stroke-linecap:round;stroke-linejoin:round;stroke:#000;stroke-opacity:1;stroke-miterlimit:10" d="m1948.556 729.375-500.778 595.615-725.007-260.978M766.738 271.623l780.78-205.324 401.038 663.076" transform="matrix(.0996 0 0 -.0996 0 140.146)"/><path style="stroke:none;fill-rule:nonzero;fill:#baa0be;fill-opacity:1" d="m71.984 34.176 4.38 78.918 117.702-45.59"/><path style="fill:none;stroke-width:5;stroke-linecap:round;stroke-linejoin:round;stroke:#000;stroke-opacity:1;stroke-miterlimit:10" d="m722.771 1064.012 43.967-792.39" transform="matrix(.0996 0 0 -.0996 0 140.146)"/><path style="stroke:none;fill-rule:nonzero;fill:#b299bd;fill-opacity:1" d="m5.297 78.11 71.066 34.984-4.379-78.918"/><path style="fill:none;stroke-width:5;stroke-linecap:round;stroke-linejoin:round;stroke:#000;stroke-opacity:1;stroke-miterlimit:10" d="m53.184 622.89 713.554-351.267-43.967 792.389Zm0 0" transform="matrix(.0996 0 0 -.0996 0 140.146)"/></svg>
